X: 113
T:Bourree (2 time)
M:2/4
L:1/8
R:Bourree
Z:Steve Mansfield
K:G
d2dc | d3e | =f>e dc | d2AB | c2cB | c3d |
e>d cB |1 AB AG :|2 A4 |: G2AG | d3c | A>BAB |
GB dB |G2AG | d3c | A>BAB | G4 :|
<end>
<start>
